!!!OTL: Der Schaefer von der neuen Stadt. / (Tanzlied des 15. Jahrj.)
!!!ARE: Europa, Mitteleuropa, Deutschland
!!!SCT: A0298
!!!TXL: @@GMH
!!!YEM: Copyright 1995, estate of Helmut Schaffrath.
**kern	**text
*M3/1	*
*met(3)	*
*clefC4	*
*k[b-]	*
*F:ion	*
!LO:TX:a:t=jon. F.	!
{1F	Der
=1	=1
!LO:TX:a:t=..	!
0F	ſchef-
1F	-fer
=2	=2
!LO:TX:a:t=..	!
0c	von
1c	der
=3	=3
0d	nu-
1d	-wen
=4	=4
0c}	ſtat,
{1F	der
=5	=5
!LO:TX:a:t=..	!
0c	het
1f	myn
=6	=6
*lig	*
1e	dochter
1e	.
*Xlig	*
1c	gar
=7	=7
0.d	ger-
=8	=8
0c}	-ne;}
{1F	Ich
=9	=9
!LO:TX:a:t=..	!
0F	habe
1F	ſe_im
=10	=10
!LO:TX:a:t=..	!
0c	dicke
1c	vnd
=11	=11
0d	vil
1d	ver-
=12	=12
0c}	-ſeit,
{1F	ich
=13	=13
!LO:TX:a:t=..	!
0c	meyn,
1f	ich
=14	=14
*lig	*
1e	well
1e	ſie
*Xlig	*
1c	im
=15	=15
0.d	ge-
=16	=16
0c}	-ben:}
!LO:TX:a:t=NB.	!
{1d	Nůn
=17	=17
1c	hab
1B-	dir
1G	myn
=18	=18
1A	doch-
1F	-ter,
1d	ich
=19	=19
1c	gib
1B-	dir
1G	myn
=20	=20
1A	doch-
1F}	-ter:
{1C	dis
=21	=21
1F	ſin-
1F	-gent
1A	die
=22	=22
0c	ſchef-
1A	-fer
=23	=23
0.G	al-
=24	=24
0F/ll}	-le.
==	==
!!!GTL: Tanz- und Kranzlieder
!!!AGN: Romanze, Ballade, Lied
!! Schmeltzel Quodl. No. 8 (1544). Dritte Zeile von Boehme ergaenzt.
!!!ONB: ESAC (Essen Associative Code) Database: ALTDEU
!!!AMT: simple triple
!!!AIN: vox
!!!EED: Helmut Schaffrath
!!!EEV: 1.0
!!!RDF**kern: l = terminal long
!!!AMD: Ionian
!!!URL-scan: https://rosdok.uni-rostock.de/mcrviewer/recordIdentifier/rosdok_ppn738218359/iview2/phys_0455.iview2?x=-495.6391625615763&y=-1215.7034482595045&scale=0.4629418472063854&rotation=0&layout=singlePageLayout&logicalDiv=log_0012
!!!ENC: Anna Maria Matuszewska
!!!EEV: 2024/12/03
*-	*-
